src/assets/tsjf_logo.svg

<svg height="81" viewBox="0 0 81 81" width="81" xmlns="http://www.w3.org/2000/svg"><g fill="none" transform="translate(1 1)"><path d="m39.547 0c21.84 0 39.546 17.705 39.546 39.546s-17.706 39.547-39.546 39.547c-21.842 0-39.547-17.706-39.547-39.547s17.705-39.546 39.547-39.546" stroke="#fff"/><g fill="#fff"><path d="m26.06 22.257v-10.988h-2.374v4.329h-3.662v-4.329h-2.373v10.988h2.373v-4.373h3.662v4.373z"/><path d="m38.615 34.552 3.144 10.989h2.383l1.824-7.216 1.842 7.216h2.347l3.084-10.989h-2.572l-1.658 7.175-1.884-7.175h-2.307l-1.879 7.206-1.69-7.206z"/><path d="m38.83 22.91h2.375v10.988h-2.375z"/><path d="m53.269 68.969c3.103 0 5.626-2.53 5.626-5.64s-2.523-5.64-5.626-5.64c-3.093 0-5.6100003 2.529-5.6100003 5.64-.0009997 3.109 2.5170003 5.64 5.6100003 5.64zm0-8.936c1.801 0 3.267 1.479 3.267 3.296s-1.466 3.296-3.267 3.296c-1.793 0-3.252-1.479-3.252-3.296s1.459-3.296 3.252-3.296z"/><path d="m34.718 13.555v-2.286h-7.201v10.988h7.201v-2.286h-4.828v-2.087h3.645v-2.286h-3.645v-2.043z"/><path d="m30.854 26.936 4.093 6.962h2.427v-10.988h-2.374v6.731l-3.946-6.731h-2.573v10.988h2.373z"/><path d="m12.192 48.728c-.271 0-.516-.15-.684-.391l-.543.403c.275.311.682.542 1.23.542.672 0 1.057-.467 1.057-.951 0-.585-.468-.769-.882-.902-.325-.108-.618-.188-.618-.422 0-.192.146-.338.418-.338.237 0 .418.101.543.288l.47-.375c-.244-.249-.527-.431-1.018-.431-.588 0-1.014.389-1.014.877 0 .585.455.743.864.868.326.101.631.18.631.43.001.209-.157.402-.454.402z"/><path d="m14.646 49.241v-2.493h.771v-.555h-2.122v.555h.77v2.493z"/><path d="m68.591 33.898v-8.702h2.607v-2.286h-7.588v2.286h2.607v8.702z"/><path d="m48.074 66.537h-3.586v-8.702h-2.373v10.988h5.959z"/><path d="m66.216 52.057v5.125h2.375v-5.125l3.556-5.864h-2.594l-2.142 3.494-2.127-3.494h-2.595z"/><path d="m54.342 22.91v10.988h2.373v-4.373h3.662v4.373h2.373v-10.988h-2.373v4.329h-3.662v-4.329z"/><path d="m47.86 25.08c1.292 0 2.229.556 2.866 1.697l2.034-1.325c-1.01-1.686-2.835-2.688-4.915-2.688-3.316 0-5.699 2.425-5.699 5.64s2.421 5.64 5.787 5.64c3.184 0 5.466-2.361 5.466-5.493v-.946h-5.466v2.242h2.833c-.42 1.18-1.393 1.882-2.833 1.882-2.022 0-3.428-1.429-3.428-3.324.001-1.834 1.436-3.325 3.355-3.325z"/><path d="m16.603 44.608c.655-.646 1.016-1.417 1.016-2.331 0-2.281-1.973-3.014-3.296-3.436-1.137-.363-1.937-.639-1.937-1.273 0-.622.492-1.008 1.284-1.008.729 0 1.592.445 2.017 1.036l1.815-1.452c-.961-1.01-1.944-1.738-3.847-1.738-2.119 0-3.717 1.39-3.717 3.234 0 2.236 1.781 2.783 3.227 3.225 1.086.331 1.992.696 1.992 1.396 0 .666-.442 1.227-1.415 1.227-.873 0-1.922-.667-2.457-1.466l-1.948 1.557c1.116 1.383 2.692 2.107002 4.42 2.107002 1.146.000998 2.13-.373002 2.846-1.078002z"/><path d="m50.028 57.182v-10.989h-2.265l-3.058 4.356-3.034-4.356h-2.28v10.989h2.364v-6.978l2.933 4.05 2.976-4.095v7.023z"/><path d="m51.485 46.193v10.989h2.363v-6.978l2.933 4.05 2.977-4.095v7.023h2.364v-10.989h-2.265l-3.058 4.356-3.034-4.356z"/><path d="m41.52 66.537h-3.587v-8.702h-2.373v10.988h5.96z"/><path d="m21.045 64.45h3.644v-2.286h-3.644v-2.043h4.828v-2.286h-7.202v10.988h2.374z"/><path d="m9.742 13.555h2.067v8.702h2.374v-8.702h2.607v-2.286h-4.887c-.749.733-1.47 1.495-2.161 2.286z"/><path d="m25.064 47.124 1.176 2.117h.618v-3.048h-.581v2.05l-1.132-2.05h-.66v3.048h.579z"/><path d="m30.376 57.327c2.4 0 3.727-1.32 3.727-3.645v-7.489h-2.374v7.489c0 .944-.546 1.447-1.366 1.447-.843 0-1.354-.458-1.712-1.353l-2.092 1.124c.801 1.641 2.151 2.427 3.817 2.427z"/><path d="m27.527 66.884h4.234l.706 1.939h2.483l-4.164-10.988h-2.285l-4.164 10.988h2.483zm2.118-5.811 1.3 3.568h-2.6z"/><path d="m38.949 40.046c0-3.11-2.524-5.64-5.626-5.64-3.094 0-5.611 2.529-5.611 5.64s2.518 5.641 5.611 5.641c3.102 0 5.626-2.531 5.626-5.641zm-5.603 3.296c-1.794 0-3.252-1.479-3.252-3.296s1.458-3.296 3.252-3.296c1.8 0 3.266 1.479 3.266 3.296s-1.466 3.296-3.266 3.296z"/><path d="m68.591 66.382v-8.547h-2.374v6.73l-3.883-6.71-.013-.021h-2.573v10.988h2.374v-6.964l4.06 6.918c.837-.762 1.639-1.562 2.409-2.394z"/><path d="m35.56 46.193h2.374v10.988h-2.374z"/><path d="m18.662 48.168h.354l.587 1.073h.663l-.693-1.206c.405-.155.59-.482.59-.862 0-.576-.422-.979-1.124-.979h-.956v3.048h.58v-1.074zm0-1.433h.31c.438 0 .605.132.605.438 0 .216-.155.474-.605.474h-.31z"/><path d="m22.001 34.044c3.103 0 5.626-2.529 5.626-5.64s-2.523-5.64-5.626-5.64c-3.094 0-5.61 2.529-5.61 5.64s2.516 5.64 5.61 5.64zm0-8.935c1.802 0 3.267 1.479 3.267 3.295 0 1.817-1.465 3.296-3.267 3.296-1.793 0-3.252-1.479-3.252-3.296 0-1.816 1.459-3.295 3.252-3.295z"/><path d="m15.855 48.711h1.169l.184.53h.606l-1.082-3.048h-.585l-1.082 3.048h.606zm.585-1.691.393 1.136h-.785z"/><path d="m11.81 33.898h2.374v-8.702h2.607v-2.286h-7.589v2.286h2.608z"/><path d="m22.764 47.173c0-.576-.422-.979-1.124-.979h-.956v3.048h.58v-1.073h.354l.586 1.073h.664l-.693-1.206c.404-.156.589-.483.589-.863zm-1.191.473h-.31v-.911h.31c.438 0 .605.132.605.438.001.216-.154.473-.605.473z"/><path d="m23.308 46.193h1v3.048h-1z"/><path d="m28.88 46.715c.396 0 .685.18.873.526l.5-.325c-.262-.451-.75-.765-1.377-.765-.902 0-1.558.697-1.558 1.565 0 .844.631 1.565 1.582 1.565.907 0 1.491-.705 1.491-1.523v-.233h-1.491v.555h.865c-.108.389-.422.64-.865.64-.585 0-1.006-.443-1.006-1.003.001-.547.43-1.002.986-1.002z"/><path d="m24.485 45.541h2.373v-10.989h-2.373v4.329h-3.662v-4.329h-2.373v10.989h2.373v-4.374h3.662z"/></g></g></svg>

<?xml version="1.0" encoding="UTF-8"?>
<svg width="81px" height="81px" viewBox="0 0 81 81" version="1.1" xmlns="http://www.w3.org/2000/svg" xmlns:xlink="http://www.w3.org/1999/xlink">
    <title>The_Tonight_Show_Starring_Jimmy_Fallon</title>
    <g id="Page-1" stroke="none" stroke-width="1" fill="none" fill-rule="evenodd">
        <g id="The_Tonight_Show_Starring_Jimmy_Fallon" transform="translate(1.000000, 1.000000)" fill-rule="nonzero">
            <path d="M39.547,0 C61.387,0 79.093,17.705 79.093,39.546 C79.093,61.387 61.387,79.093 39.547,79.093 C17.705,79.093 0,61.387 0,39.546 C0,17.705 17.705,0 39.547,0" id="path3179" stroke="#FFFFFF"></path>
            <polygon id="polygon3183" fill="#FFFFFF" points="26.06 22.257 26.06 11.269 23.686 11.269 23.686 15.598 20.024 15.598 20.024 11.269 17.651 11.269 17.651 22.257 20.024 22.257 20.024 17.884 23.686 17.884 23.686 22.257"></polygon>
            <polygon id="polygon3185" fill="#FFFFFF" points="38.615 34.552 41.759 45.541 44.142 45.541 45.966 38.325 47.808 45.541 50.155 45.541 53.239 34.552 50.667 34.552 49.009 41.727 47.125 34.552 44.818 34.552 42.939 41.758 41.249 34.552"></polygon>
            <rect id="rect3187" fill="#FFFFFF" x="38.83" y="22.91" width="2.375" height="10.988"></rect>
            <path d="M53.269,68.969 C56.372,68.969 58.895,66.439 58.895,63.329 C58.895,60.219 56.372,57.689 53.269,57.689 C50.176,57.689 47.6589997,60.218 47.6589997,63.329 C47.658,66.438 50.176,68.969 53.269,68.969 Z M53.269,60.033 C55.07,60.033 56.536,61.512 56.536,63.329 C56.536,65.146 55.07,66.625 53.269,66.625 C51.476,66.625 50.017,65.146 50.017,63.329 C50.017,61.512 51.476,60.033 53.269,60.033 Z" id="path3189" fill="#FFFFFF"></path>
            <polygon id="polygon3191" fill="#FFFFFF" points="34.718 13.555 34.718 11.269 27.517 11.269 27.517 22.257 34.718 22.257 34.718 19.971 29.89 19.971 29.89 17.884 33.535 17.884 33.535 15.598 29.89 15.598 29.89 13.555"></polygon>
            <polygon id="polygon3193" fill="#FFFFFF" points="30.854 26.936 34.947 33.898 37.374 33.898 37.374 22.91 35 22.91 35 29.641 31.054 22.91 28.481 22.91 28.481 33.898 30.854 33.898"></polygon>
            <path d="M12.192,48.728 C11.921,48.728 11.676,48.578 11.508,48.337 L10.965,48.74 C11.24,49.051 11.647,49.282 12.195,49.282 C12.867,49.282 13.252,48.815 13.252,48.331 C13.252,47.746 12.784,47.562 12.37,47.429 C12.045,47.321 11.752,47.241 11.752,47.007 C11.752,46.815 11.898,46.669 12.17,46.669 C12.407,46.669 12.588,46.77 12.713,46.957 L13.183,46.582 C12.939,46.333 12.656,46.151 12.165,46.151 C11.577,46.151 11.151,46.54 11.151,47.028 C11.151,47.613 11.606,47.771 12.015,47.896 C12.341,47.997 12.646,48.076 12.646,48.326 C12.647,48.535 12.489,48.728 12.192,48.728 Z" id="path3195" fill="#FFFFFF"></path>
            <polygon id="polygon3197" fill="#FFFFFF" points="14.646 49.241 14.646 46.748 15.417 46.748 15.417 46.193 13.295 46.193 13.295 46.748 14.065 46.748 14.065 49.241"></polygon>
            <polygon id="polygon3199" fill="#FFFFFF" points="68.591 33.898 68.591 25.196 71.198 25.196 71.198 22.91 63.61 22.91 63.61 25.196 66.217 25.196 66.217 33.898"></polygon>
            <polygon id="polygon3201" fill="#FFFFFF" points="48.074 66.537 44.488 66.537 44.488 57.835 42.115 57.835 42.115 68.823 48.074 68.823"></polygon>
            <polygon id="polygon3203" fill="#FFFFFF" points="66.216 52.057 66.216 57.182 68.591 57.182 68.591 52.057 72.147 46.193 69.553 46.193 67.411 49.687 65.284 46.193 62.689 46.193"></polygon>
            <polygon id="polygon3205" fill="#FFFFFF" points="54.342 22.91 54.342 33.898 56.715 33.898 56.715 29.525 60.377 29.525 60.377 33.898 62.75 33.898 62.75 22.91 60.377 22.91 60.377 27.239 56.715 27.239 56.715 22.91"></polygon>
            <path d="M47.86,25.08 C49.152,25.08 50.089,25.636 50.726,26.777 L52.76,25.452 C51.75,23.766 49.925,22.764 47.845,22.764 C44.529,22.764 42.146,25.189 42.146,28.404 C42.146,31.619 44.567,34.044 47.933,34.044 C51.117,34.044 53.399,31.683 53.399,28.551 L53.399,27.605 L47.933,27.605 L47.933,29.847 L50.766,29.847 C50.346,31.027 49.373,31.729 47.933,31.729 C45.911,31.729 44.505,30.3 44.505,28.405 C44.506,26.571 45.941,25.08 47.86,25.08 Z" id="path3207" fill="#FFFFFF"></path>
            <path d="M16.603,44.608 C17.258,43.962 17.619,43.191 17.619,42.277 C17.619,39.996 15.646,39.263 14.323,38.841 C13.186,38.478 12.386,38.202 12.386,37.568 C12.386,36.946 12.878,36.56 13.67,36.56 C14.399,36.56 15.262,37.005 15.687,37.596 L17.502,36.144 C16.541,35.134 15.558,34.406 13.655,34.406 C11.536,34.406 9.938,35.796 9.938,37.64 C9.938,39.876 11.719,40.423 13.165,40.865 C14.251,41.196 15.157,41.561 15.157,42.261 C15.157,42.927 14.715,43.488 13.742,43.488 C12.869,43.488 11.82,42.821 11.285,42.022 L9.337,43.579 C10.453,44.962 12.029,45.686002 13.757,45.686002 C14.903,45.687 15.887,45.313 16.603,44.608 Z" id="path3209" fill="#FFFFFF"></path>
            <polygon id="polygon3211" fill="#FFFFFF" points="50.028 57.182 50.028 46.193 47.763 46.193 44.705 50.549 41.671 46.193 39.391 46.193 39.391 57.182 41.755 57.182 41.755 50.204 44.688 54.254 47.664 50.159 47.664 57.182"></polygon>
            <polygon id="polygon3213" fill="#FFFFFF" points="51.485 46.193 51.485 57.182 53.848 57.182 53.848 50.204 56.781 54.254 59.758 50.159 59.758 57.182 62.122 57.182 62.122 46.193 59.857 46.193 56.799 50.549 53.765 46.193"></polygon>
            <polygon id="polygon3215" fill="#FFFFFF" points="41.52 66.537 37.933 66.537 37.933 57.835 35.56 57.835 35.56 68.823 41.52 68.823"></polygon>
            <polygon id="polygon3217" fill="#FFFFFF" points="21.045 64.45 24.689 64.45 24.689 62.164 21.045 62.164 21.045 60.121 25.873 60.121 25.873 57.835 18.671 57.835 18.671 68.823 21.045 68.823"></polygon>
            <path d="M9.742,13.555 L11.809,13.555 L11.809,22.257 L14.183,22.257 L14.183,13.555 L16.79,13.555 L16.79,11.269 L11.903,11.269 C11.154,12.002 10.433,12.764 9.742,13.555 Z" id="path3219" fill="#FFFFFF"></path>
            <polygon id="polygon3221" fill="#FFFFFF" points="25.064 47.124 26.24 49.241 26.858 49.241 26.858 46.193 26.277 46.193 26.277 48.243 25.145 46.193 24.485 46.193 24.485 49.241 25.064 49.241"></polygon>
            <path d="M30.376,57.327 C32.776,57.327 34.103,56.007 34.103,53.682 L34.103,46.193 L31.729,46.193 L31.729,53.682 C31.729,54.626 31.183,55.129 30.363,55.129 C29.52,55.129 29.009,54.671 28.651,53.776 L26.559,54.9 C27.36,56.541 28.71,57.327 30.376,57.327 Z" id="path3223" fill="#FFFFFF"></path>
            <path d="M27.527,66.884 L31.761,66.884 L32.467,68.823 L34.95,68.823 L30.786,57.835 L28.501,57.835 L24.337,68.823 L26.82,68.823 L27.527,66.884 Z M29.645,61.073 L30.945,64.641 L28.345,64.641 L29.645,61.073 Z" id="path3225" fill="#FFFFFF"></path>
            <path d="M38.949,40.046 C38.949,36.936 36.425,34.406 33.323,34.406 C30.229,34.406 27.712,36.935 27.712,40.046 C27.712,43.157 30.23,45.687 33.323,45.687 C36.425,45.687 38.949,43.156 38.949,40.046 Z M33.346,43.342 C31.552,43.342 30.094,41.863 30.094,40.046 C30.094,38.229 31.552,36.75 33.346,36.75 C35.146,36.75 36.612,38.229 36.612,40.046 C36.612,41.863 35.146,43.342 33.346,43.342 Z" id="path3227" fill="#FFFFFF"></path>
            <path d="M68.591,66.382 L68.591,57.835 L66.217,57.835 L66.217,64.565 L62.334,57.855 L62.321,57.834 L59.748,57.834 L59.748,68.822 L62.122,68.822 L62.122,61.858 L66.182,68.776 C67.019,68.014 67.821,67.214 68.591,66.382 Z" id="path3229" fill="#FFFFFF"></path>
            <rect id="rect3231" fill="#FFFFFF" x="35.56" y="46.193" width="2.374" height="10.988"></rect>
            <path d="M18.662,48.168 L19.016,48.168 L19.603,49.241 L20.266,49.241 L19.573,48.035 C19.978,47.88 20.163,47.553 20.163,47.173 C20.163,46.597 19.741,46.194 19.039,46.194 L18.083,46.194 L18.083,49.242 L18.663,49.242 L18.663,48.168 L18.662,48.168 Z M18.662,46.735 L18.972,46.735 C19.41,46.735 19.577,46.867 19.577,47.173 C19.577,47.389 19.422,47.647 18.972,47.647 L18.662,47.647 L18.662,46.735 Z" id="path3233" fill="#FFFFFF"></path>
            <path d="M22.001,34.044 C25.104,34.044 27.627,31.515 27.627,28.404 C27.627,25.293 25.104,22.764 22.001,22.764 C18.907,22.764 16.391,25.293 16.391,28.404 C16.391,31.515 18.907,34.044 22.001,34.044 Z M22.001,25.109 C23.803,25.109 25.268,26.588 25.268,28.404 C25.268,30.221 23.803,31.7 22.001,31.7 C20.208,31.7 18.749,30.221 18.749,28.404 C18.749,26.588 20.208,25.109 22.001,25.109 Z" id="path3235" fill="#FFFFFF"></path>
            <path d="M15.855,48.711 L17.024,48.711 L17.208,49.241 L17.814,49.241 L16.732,46.193 L16.147,46.193 L15.065,49.241 L15.671,49.241 L15.855,48.711 Z M16.44,47.02 L16.833,48.156 L16.048,48.156 L16.44,47.02 Z" id="path3237" fill="#FFFFFF"></path>
            <polygon id="polygon3239" fill="#FFFFFF" points="11.81 33.898 14.184 33.898 14.184 25.196 16.791 25.196 16.791 22.91 9.202 22.91 9.202 25.196 11.81 25.196"></polygon>
            <path d="M22.764,47.173 C22.764,46.597 22.342,46.194 21.64,46.194 L20.684,46.194 L20.684,49.242 L21.264,49.242 L21.264,48.169 L21.618,48.169 L22.204,49.242 L22.868,49.242 L22.175,48.036 C22.579,47.88 22.764,47.553 22.764,47.173 Z M21.573,47.646 L21.263,47.646 L21.263,46.735 L21.573,46.735 C22.011,46.735 22.178,46.867 22.178,47.173 C22.179,47.389 22.024,47.646 21.573,47.646 Z" id="path3241" fill="#FFFFFF"></path>
            <rect id="rect3243" fill="#FFFFFF" x="23.308" y="46.193" width="1" height="3.048"></rect>
            <path d="M28.88,46.715 C29.276,46.715 29.565,46.895 29.753,47.241 L30.253,46.916 C29.991,46.465 29.503,46.151 28.876,46.151 C27.974,46.151 27.318,46.848 27.318,47.716 C27.318,48.56 27.949,49.281 28.9,49.281 C29.807,49.281 30.391,48.576 30.391,47.758 L30.391,47.525 L28.9,47.525 L28.9,48.08 L29.765,48.08 C29.657,48.469 29.343,48.72 28.9,48.72 C28.315,48.72 27.894,48.277 27.894,47.717 C27.895,47.17 28.324,46.715 28.88,46.715 Z" id="path3245" fill="#FFFFFF"></path>
            <polygon id="polygon3247" fill="#FFFFFF" points="24.485 45.541 26.858 45.541 26.858 34.552 24.485 34.552 24.485 38.881 20.823 38.881 20.823 34.552 18.45 34.552 18.45 45.541 20.823 45.541 20.823 41.167 24.485 41.167"></polygon>
        </g>
    </g>
</svg>
